svg/color/nowon.svg

<svg width="40" height="40" viewBox="0 0 40 40" fill="none" xmlns="http://www.w3.org/2000/svg">
<g clip-path="url(#clip0_821_4107)">
<path d="M20 0C31.0457 0 40 8.9543 40 20C40 31.0457 31.0457 40 20 40C8.95431 40 7.90517e-06 31.0457 0 20C6.58765e-07 8.95431 8.95431 1.97595e-06 20 0Z" fill="#D4D8D9"/>
<path d="M26 6C30.4183 6 34 9.58172 34 14V26C34 30.4183 30.4183 34 26 34H14C9.58172 34 6 30.4183 6 26V14C6 9.58172 9.58172 6 14 6H26Z" fill="#293E40"/>
<path fill-rule="evenodd" clip-rule="evenodd" d="M20 10C14.4 10 10 14.4 10 20C10 22.9333 11.2 25.6 13.0667 27.4667C13.7333 28.1333 14.9333 28.1333 15.7333 27.6C16.8 26.6667 18.4 26.1333 20 26.1333C21.7333 26.1333 23.0667 26.6667 24.2667 27.6C25.0667 28.2667 26.1333 28.1333 26.9333 27.3333C28.8 25.4667 30 22.9333 30 20C29.8667 14.5333 25.4667 10 20 10ZM19.8667 25.2C16.8 25.2 14.8 22.9333 14.8 20.1333C14.8 17.3333 16.8 15.0667 19.8667 15.0667C22.9333 15.0667 24.9333 17.3333 24.9333 20.1333C24.9333 22.9333 22.9333 25.2 19.8667 25.2Z" fill="white"/>
</g>
<defs>
<clipPath id="clip0_821_4107">
<rect width="40" height="40" fill="white"/>
</clipPath>
</defs>
</svg>

<svg xmlns="http://www.w3.org/2000/svg" width="40" height="40" fill="none" viewBox="0 0 40 40"><g clip-path="url(#nowon_svg-a)"><path fill="#D4D8D9" d="M20 0c11.046 0 20 8.954 20 20s-8.954 20-20 20S0 31.046 0 20 8.954 0 20 0"/><path fill="#293E40" d="M26 6a8 8 0 0 1 8 8v12a8 8 0 0 1-8 8H14a8 8 0 0 1-8-8V14a8 8 0 0 1 8-8z"/><path fill="#fff" fill-rule="evenodd" d="M20 10c-5.6 0-10 4.4-10 10 0 2.933 1.2 5.6 3.067 7.467.666.666 1.866.666 2.666.133C16.8 26.667 18.4 26.133 20 26.133c1.733 0 3.067.534 4.267 1.467.8.667 1.866.533 2.666-.267C28.8 25.467 30 22.933 30 20c-.133-5.467-4.533-10-10-10m-.133 15.2c-3.067 0-5.067-2.267-5.067-5.067s2-5.066 5.067-5.066c3.066 0 5.066 2.266 5.066 5.066s-2 5.067-5.066 5.067" clip-rule="evenodd"/></g><defs><clipPath id="nowon_svg-a"><path fill="#fff" d="M0 0h40v40H0z"/></clipPath></defs></svg>
